archdroid-icon-theme/Archdroid-DeepOrangeDark/apps/scalable/evince.svg

<svg height="48" viewBox="0 0 48 40" width="48" xmlns="http://www.w3.org/2000/svg"><path d="m10 6c-2.21 0-4 1.79-4 4v26.291016c1.200945-1.057788 3.471055-3.135561 6.044922-5.591797-1.009037-.595339-1.921115-1.283759-2.736328-2.082031-.957752-.93785-1.359384-2.086655-1.3125-3.326172-.007811-.163632-.008634-.328674 0-.496094-.200506-5.788338 9.943322-14.044036 18.857422-13.789063.342156.009787.679709.030909 1.017578.066407 1.732917.182066 2.397404.920447 2.289062 2.029297.00093.008988.003107.016338.003907.02539.000978.010733.00311.022381.003906.033203.000664.009398.001426.017879.001953.027344.006938.117521.004013.239595-.009766.367188.294013 3.135006-7.243052 10.089909-13.976562 15.646484 2.760744 1.29558 6.520822 1.485003 8.767578 1.210937 7.687993-1.206958 17.048828-6.240234 17.048828-6.240234v-14.171875c0-2.21-1.79-4-4-4zm16.175781 5.429688c-.029771.000548-.060052.003176-.089843.003906.15919-.002779.317869-.002529.476562 0-.128881-.001075-.257412-.00629-.386719-.003906zm2.628907.255859c.022568.006916.042481.016215.064453.023437.013797.004558.029406.007042.042968.011719-.035038-.012185-.070798-.023786-.107421-.035156zm.392578.150391c.026341.012352.049009.028086.074218.041015.006931.003571.014639.006151.021485.009766-.031568-.016794-.062301-.034923-.095703-.050781zm-3.746094 2.279296c.024663.006404.045439.013805.068359.021485-.015727-.005255-.026413-.012922-.042968-.017578-.007686-.002162-.017527-.001875-.025391-.003907zm.201172.078125c.020558.010942.039948.022826.058594.035157-.007177-.004755-.010115-.01303-.017579-.017578-.004415-.002723-.009154-.005164-.013671-.007813-.007595-.004402-.019464-.005569-.027344-.009766zm-.966797.291016c-2.779599.028236-8.206873 1.778055-10.716797 6.511719-.784031 1.478667-1.158117 2.759671-1.230469 3.867187.123893 1.434819.820024 2.534048 1.845703 3.365235 5.151892-5.054972 10.61681-10.853239 11.333985-13.347657-.111409-.21773-.340268-.348527-.712891-.378906-.160115-.013054-.334225-.01946-.519531-.017578zm-8.503906.101563c-.014594.008817-.030352.016546-.044922.02539.00298-.001809.006784-.002098.009765-.003906.011592-.007039.02355-.014463.035157-.021484zm9.554687 1.185546c-.037901.086845-.07318.173223-.11914.265625.017487-.035179.036406-.073041.052734-.107421.000694-.001468.001261-.00244.001953-.003907.025601-.054211.041778-.102113.064453-.154297zm-.6875 1.246094c-.047519.07323-.098342.147644-.148437.222656.030162-.045174.068614-.094249.097656-.138671.018536-.028461.03271-.055838.050781-.083985zm-12.36914.13086c-.042924.037926-.084478.077115-.126954.115234.006878-.006179.014596-.011404.021485-.017578.035696-.031948.069457-.065845.105469-.097656zm8.044921 5.195312c-.47875.523966-.983989 1.061986-1.496093 1.601563.242825-.255759.482657-.510851.71875-.763672.232351-.249069.468731-.49887.693359-.744141.029334-.031998.054794-.061826.083984-.09375zm-12.541015 1.271484c-.01052.041374-.021578.083765-.03125.125.004436-.018853.011011-.037758.015625-.05664.005453-.022409.009922-.045911.015625-.06836zm4.625.154297c-.005006.029909-.012997.062119-.017578.091797-.006677.043026-.007878.08441-.013672.126953.009777-.071946.018946-.145417.03125-.21875zm-4.744141.419922c-.010062.062831-.017434.125078-.02539.1875.003015-.02352.008402-.048686.011718-.072265.005445-.038964.007413-.076115.013672-.115235zm33.935547 1.294922-.005859 3.46875h.005859zm-24.464844.212891c-.139296.142263-.273888.283565-.414062.425781.100488-.101894.198777-.202763.298828-.304688.039575-.040346.075736-.080748.115234-.121093zm-4.535156.796875c.006838.018902.012461.037885.019531.05664.032402.08602.068298.170937.105469.253907.019976.044525.041182.087205.0625.130859-.069283-.143008-.132883-.288983-.1875-.441406zm.234375.533203c.034357.066574.068041.134688.105469.199219.034333.059078.070583.116445.107422.173828-.076669-.120206-.147389-.245366-.212891-.373047zm.605469.902344c.016345.019214.030229.039599.046875.058593.061224.069736.128207.136309.193359.203125-.082692-.085044-.164007-.17192-.240234-.261718zm.365234.390625c.005851.005631.009747.011967.015625.017578.116155.110714.23679.217807.363281.320312-.132842-.107652-.257693-.221114-.378906-.33789zm27.794922 1.851562c-13.093617 3.73165-22.39187 4.083751-28.541016 1.257813-4.156405 3.317763-7.458984 5.71875-7.458984 5.71875v.851562c0 2.21 1.79 4 4 4h28c2.21 0 4-1.79 4-4z" fill="#d41818" transform="translate(0 -4)"/></svg>

<svg fill="#BF360C" height="48" version="1.1" viewBox="0 0 48 40" width="48" xmlns="http://www.w3.org/2000/svg"><path d="M10 6C7.79 6 6 7.79 6 10L6 36.291016C7.200945 35.233228 9.471055 33.155455 12.044922 30.699219 11.035885 30.10388 10.123807 29.41546 9.308594 28.617188 8.350842 27.679338 7.94921 26.530533 7.996094 25.291016 7.988283 25.127384 7.98746 24.962342 7.996094 24.794922 7.795588 19.006584 17.939416 10.750886 26.853516 11.005859 27.195672 11.015646 27.533225 11.036768 27.871094 11.072266 29.604011 11.254332 30.268498 11.992713 30.160156 13.101563 30.161086 13.110551 30.163263 13.117901 30.164063 13.126953 30.165041 13.137686 30.167173 13.149334 30.167969 13.160156 30.168633 13.169554 30.169395 13.178035 30.169922 13.1875 30.17686 13.305021 30.173935 13.427095 30.160156 13.554688 30.454169 16.689694 22.917104 23.644597 16.183594 29.201172 18.944338 30.496752 22.704416 30.686175 24.951172 30.412109 32.639165 29.205151 42 24.171875 42 24.171875L42 10C42 7.79 40.21 6 38 6L10 6zM26.175781 11.429688C26.14601 11.430236 26.115729 11.432864 26.085938 11.433594 26.245128 11.430815 26.403807 11.431065 26.5625 11.433594 26.433619 11.432519 26.305088 11.427304 26.175781 11.429688zM28.804688 11.685547C28.827256 11.692463 28.847169 11.701762 28.869141 11.708984 28.882938 11.713542 28.898547 11.716026 28.912109 11.720703 28.877071 11.708518 28.841311 11.696917 28.804688 11.685547zM29.197266 11.835938C29.223607 11.84829 29.246275 11.864024 29.271484 11.876953 29.278415 11.880524 29.286123 11.883104 29.292969 11.886719 29.261401 11.869925 29.230668 11.851796 29.197266 11.835938zM25.451172 14.115234C25.475835 14.121638 25.496611 14.129039 25.519531 14.136719 25.503804 14.131464 25.493118 14.123797 25.476563 14.119141 25.468877 14.116979 25.459036 14.117266 25.451172 14.115234zM25.652344 14.193359C25.672902 14.204301 25.692292 14.216185 25.710938 14.228516 25.703761 14.223761 25.700823 14.215486 25.693359 14.210938 25.688944 14.208215 25.684205 14.205774 25.679688 14.203125 25.672093 14.198723 25.660224 14.197556 25.652344 14.193359zM24.685547 14.484375C21.905948 14.512611 16.478674 16.26243 13.96875 20.996094 13.184719 22.474761 12.810633 23.755765 12.738281 24.863281 12.862174 26.2981 13.558305 27.397329 14.583984 28.228516 19.735876 23.173544 25.200794 17.375277 25.917969 14.880859 25.80656 14.663129 25.577701 14.532332 25.205078 14.501953 25.044963 14.488899 24.870853 14.482493 24.685547 14.484375zM16.181641 14.585938C16.167047 14.594755 16.151289 14.602484 16.136719 14.611328 16.139699 14.609519 16.143503 14.60923 16.146484 14.607422 16.158076 14.600383 16.170034 14.592959 16.181641 14.585938zM25.736328 15.771484C25.698427 15.858329 25.663148 15.944707 25.617188 16.037109 25.634675 16.00193 25.653594 15.964068 25.669922 15.929688 25.670616 15.92822 25.671183 15.927248 25.671875 15.925781 25.697476 15.87157 25.713653 15.823668 25.736328 15.771484zM25.048828 17.017578C25.001309 17.090808 24.950486 17.165222 24.900391 17.240234 24.930553 17.19506 24.969005 17.145985 24.998047 17.101563 25.016583 17.073102 25.030757 17.045725 25.048828 17.017578zM12.679688 17.148438C12.636764 17.186364 12.59521 17.225553 12.552734 17.263672 12.559612 17.257493 12.56733 17.252268 12.574219 17.246094 12.609915 17.214146 12.643676 17.180249 12.679688 17.148438zM20.724609 22.34375C20.245859 22.867716 19.74062 23.405736 19.228516 23.945313 19.471341 23.689554 19.711173 23.434462 19.947266 23.181641 20.179617 22.932572 20.415997 22.682771 20.640625 22.4375 20.669959 22.405502 20.695419 22.375674 20.724609 22.34375zM8.183594 23.615234C8.173074 23.656608 8.162016 23.698999 8.152344 23.740234 8.15678 23.721381 8.163355 23.702476 8.167969 23.683594 8.173422 23.661185 8.177891 23.637683 8.183594 23.615234zM12.808594 23.769531C12.803588 23.79944 12.795597 23.83165 12.791016 23.861328 12.784339 23.904354 12.783138 23.945738 12.777344 23.988281 12.787121 23.916335 12.79629 23.842864 12.808594 23.769531zM8.064453 24.189453C8.054391 24.252284 8.047019 24.314531 8.039063 24.376953 8.042078 24.353433 8.047465 24.328267 8.050781 24.304688 8.056226 24.265724 8.058194 24.228573 8.064453 24.189453zM42 25.484375L41.994141 28.953125 42 28.953125 42 25.484375zM17.535156 25.697266C17.39586 25.839529 17.261268 25.980831 17.121094 26.123047 17.221582 26.021153 17.319871 25.920284 17.419922 25.818359 17.459497 25.778013 17.495658 25.737611 17.535156 25.697266zM13 26.494141C13.006838 26.513043 13.012461 26.532026 13.019531 26.550781 13.051933 26.636801 13.087829 26.721718 13.125 26.804688 13.144976 26.849213 13.166182 26.891893 13.1875 26.935547 13.118217 26.792539 13.054617 26.646564 13 26.494141zM13.234375 27.027344C13.268732 27.093918 13.302416 27.162032 13.339844 27.226563 13.374177 27.285641 13.410427 27.343008 13.447266 27.400391 13.370597 27.280185 13.299877 27.155025 13.234375 27.027344zM13.839844 27.929688C13.856189 27.948902 13.870073 27.969287 13.886719 27.988281 13.947943 28.058017 14.014926 28.12459 14.080078 28.191406 13.997386 28.106362 13.916071 28.019486 13.839844 27.929688zM14.205078 28.320313C14.210929 28.325944 14.214825 28.33228 14.220703 28.337891 14.336858 28.448605 14.457493 28.555698 14.583984 28.658203 14.451142 28.550551 14.326291 28.437089 14.205078 28.320313zM42 30.171875C28.906383 33.903525 19.60813 34.255626 13.458984 31.429688 9.302579 34.747451 6 37.148438 6 37.148438L6 38C6 40.21 7.79 42 10 42L38 42C40.21 42 42 40.21 42 38L42 30.171875z" fill="#d41818" transform="translate(0 -4)"/></svg>
